tools/download-figma-icons/icons/outlined-medium/build.svg

<svg width="24" height="24" viewBox="0 0 24 24" fill="none" xmlns="http://www.w3.org/2000/svg">
<path fill-rule="evenodd" clip-rule="evenodd" d="M23.175 4.17742C23.1825 4.19992 23.1975 4.23742 23.1975 4.23742H23.19C23.22 4.31992 23.2425 4.40992 23.2425 4.49992V13.4999C23.2425 13.7624 23.1 14.0099 22.875 14.1449L19.14 16.3874C19.095 16.4174 19.0425 16.4474 18.99 16.4624C18.9525 16.4774 18.915 16.4924 18.8775 16.4924C18.8325 16.5074 18.7875 16.5074 18.7425 16.5074C18.615 16.5074 18.4875 16.4699 18.3675 16.4024H18.36L14.61 14.1524L10.86 11.9024C10.6275 11.7674 10.4925 11.5199 10.4925 11.2574V6.75742C10.4925 6.65992 10.515 6.57742 10.545 6.49492C10.5487 6.48367 10.5525 6.47429 10.5562 6.46492C10.56 6.45554 10.5637 6.44617 10.5675 6.43492C10.605 6.35992 10.65 6.28492 10.71 6.22492C10.7175 6.21742 10.7325 6.20992 10.7325 6.20992C10.77 6.17242 10.815 6.13492 10.86 6.10492L18.36 1.60492C18.6 1.46242 18.8925 1.46242 19.1325 1.60492L22.8825 3.84742C22.9275 3.87742 22.9725 3.91492 23.01 3.95242C23.0175 3.95992 23.0325 3.96742 23.0325 3.96742C23.0925 4.02742 23.1375 4.10242 23.175 4.17742ZM21.045 4.49242L18.75 3.11992L12.705 6.74242L15 8.11492L21.045 4.49242ZM14.25 9.41992L12 8.06992V10.8224L14.25 12.1724V9.41992ZM16.455 13.4999L18 14.4224V12.5774L16.455 13.4999ZM19.5 14.4179V11.2499C19.5 10.9799 19.3575 10.7324 19.1175 10.5974C18.885 10.4624 18.5925 10.4699 18.36 10.6049L15.7425 12.1724V9.41992L21.7425 5.81992V13.0724L19.5 14.4179ZM13.2825 14.4746C13.3425 14.5346 13.3875 14.6096 13.425 14.6846L13.41 14.6921C13.4137 14.7034 13.4175 14.7127 13.4212 14.7221C13.425 14.7315 13.4288 14.7409 13.4325 14.7521C13.4625 14.8346 13.485 14.9246 13.485 15.0146V19.5146C13.485 19.5296 13.4812 19.5427 13.4775 19.5559C13.4738 19.569 13.47 19.5821 13.47 19.5971C13.4625 19.6496 13.455 19.6946 13.44 19.7471C13.4288 19.7806 13.4135 19.81 13.3971 19.8413C13.3915 19.8521 13.3857 19.8631 13.38 19.8746L13.38 19.8746C13.3575 19.9121 13.335 19.9496 13.305 19.9871C13.275 20.0246 13.2375 20.0621 13.1925 20.0921C13.1625 20.1146 13.125 20.1521 13.125 20.1521L9.375 22.4021C9.36 22.4171 9.3375 22.4246 9.315 22.4321C9.2925 22.4471 9.27 22.4546 9.2475 22.4621C9.165 22.4921 9.075 22.5146 8.9925 22.5146C8.91 22.5146 8.82 22.4921 8.7375 22.4621C8.72625 22.4584 8.715 22.4527 8.70375 22.4471C8.6925 22.4415 8.68125 22.4359 8.67 22.4321C8.655 22.4171 8.61 22.4021 8.61 22.4021L1.11 17.9021C1.09273 17.8935 1.08043 17.8799 1.06881 17.867C1.06025 17.8575 1.05205 17.8485 1.0425 17.8421C1.00502 17.8121 0.967538 17.7746 0.930057 17.7372L0.93 17.7371C0.907988 17.7096 0.890014 17.678 0.873115 17.6484C0.866982 17.6376 0.860991 17.6271 0.855 17.6171C0.8325 17.5796 0.81 17.5346 0.795 17.4896C0.793312 17.4837 0.791624 17.4779 0.789958 17.4721C0.776814 17.4269 0.765 17.3862 0.765 17.3396C0.765 17.3096 0.75 17.2571 0.75 17.2571V8.25711C0.75 8.15961 0.7725 8.07711 0.8025 7.99461C0.80625 7.98336 0.81 7.97398 0.81375 7.96461C0.8175 7.95523 0.82125 7.94586 0.825 7.93461C0.8625 7.85961 0.9075 7.78461 0.9675 7.72461C0.975 7.71711 0.99 7.70961 0.99 7.70961C1.0275 7.67211 1.0725 7.63461 1.1175 7.60461L4.86 5.34711C5.1 5.20461 5.3925 5.20461 5.6325 5.34711L9.3825 7.59711C9.4275 7.62711 9.4725 7.66461 9.51 7.70211C9.5175 7.70961 9.5325 7.71711 9.5325 7.71711C9.5925 7.77711 9.6375 7.85211 9.675 7.92711C9.67875 7.93836 9.6825 7.94773 9.68625 7.9571C9.69 7.96648 9.69375 7.97586 9.6975 7.98711C9.7275 8.06961 9.75 8.15961 9.75 8.24961V12.3221L13.1325 14.3546C13.1775 14.3846 13.2225 14.4221 13.26 14.4596C13.2675 14.4671 13.2825 14.4746 13.2825 14.4746ZM4.5 10.9271L2.25 9.57711V9.58461V16.8371L8.25 20.4371V17.6846L4.8675 15.6521C4.8225 15.6221 4.7775 15.5846 4.74 15.5471C4.7325 15.5396 4.7175 15.5321 4.7175 15.5321C4.6575 15.4721 4.6125 15.3971 4.575 15.3221C4.57125 15.3109 4.5675 15.3015 4.56375 15.2921C4.56 15.2827 4.55625 15.2734 4.5525 15.2621C4.5225 15.1796 4.5 15.0896 4.5 14.9996V10.9271ZM6 13.6796L8.25 12.3296V9.57711L6 10.9271V13.6796ZM12 16.3271L9.75 17.6771V20.4296L12 19.0796V16.3271ZM6.705 15.0071L9 16.3796L11.295 15.0071L9 13.6346L6.705 15.0071ZM7.545 8.24961L5.25 6.87711L2.955 8.24961L5.25 9.62211L7.545 8.24961Z" fill="black"/>
</svg>

<svg xmlns="http://www.w3.org/2000/svg" width="24" height="24" fill="none" viewBox="0 0 24 24"><path fill="currentColor" fill-rule="evenodd" d="m23.175 4.177.023.06h-.008a.8.8 0 0 1 .052.263v9c0 .262-.142.51-.367.645l-3.735 2.242a.6.6 0 0 1-.15.075.3.3 0 0 1-.112.03c-.046.015-.09.015-.136.015a.8.8 0 0 1-.375-.105h-.007l-3.75-2.25-3.75-2.25a.74.74 0 0 1-.367-.645v-4.5a.7.7 0 0 1 .052-.262l.011-.03.012-.03a.8.8 0 0 1 .142-.21l.022-.015a1 1 0 0 1 .128-.105l7.5-4.5a.75.75 0 0 1 .773 0l3.75 2.242a1 1 0 0 1 .127.105l.022.015c.06.06.105.135.143.21m-2.13.315L18.75 3.12l-6.045 3.622L15 8.115zM14.25 9.42 12 8.07v2.752l2.25 1.35zm2.205 4.08 1.545.922v-1.845zm3.045.918V11.25a.74.74 0 0 0-.383-.653.76.76 0 0 0-.757.008l-2.617 1.567V9.42l6-3.6v7.252zm-6.217.057a.8.8 0 0 1 .142.21l-.015.007.011.03.011.03a.8.8 0 0 1 .053.263v4.5q-.001.022-.008.04-.006.02-.007.042a1 1 0 0 1-.03.15 1 1 0 0 1-.043.094l-.017.034c-.023.037-.045.075-.075.112a.5.5 0 0 1-.112.105 1 1 0 0 0-.068.06l-3.75 2.25a.2.2 0 0 1-.06.03q-.034.021-.067.03a.8.8 0 0 1-.255.053.8.8 0 0 1-.255-.053l-.034-.015-.034-.015c-.015-.015-.06-.03-.06-.03l-7.5-4.5a.14.14 0 0 1-.041-.035l-.026-.025q-.057-.047-.113-.105-.032-.042-.057-.089l-.018-.03a.7.7 0 0 1-.06-.128l-.005-.018a.5.5 0 0 1-.025-.132c0-.03-.015-.083-.015-.083v-9a.7.7 0 0 1 .064-.292l.011-.03a.8.8 0 0 1 .143-.21C.975 7.717.99 7.71.99 7.71a1 1 0 0 1 .127-.105L4.86 5.347a.75.75 0 0 1 .773 0l3.75 2.25c.045.03.09.068.127.105l.023.015a.8.8 0 0 1 .153.24l.011.03a.8.8 0 0 1 .053.263v4.072l3.383 2.033q.07.046.127.105c.008.007.023.015.023.015M4.5 10.927l-2.25-1.35v7.26l6 3.6v-2.752l-3.383-2.033a1 1 0 0 1-.127-.105c-.008-.007-.022-.015-.022-.015a.8.8 0 0 1-.143-.21l-.011-.03-.011-.03A.8.8 0 0 1 4.5 15zM6 13.68l2.25-1.35V9.577L6 10.927zm6 2.647-2.25 1.35v2.753L12 19.08zm-5.295-1.32L9 16.38l2.295-1.373L9 13.635zm.84-6.757L5.25 6.877 2.955 8.25 5.25 9.622z" clip-rule="evenodd"/></svg>
